!!!!SEGMENT: pl-kk--kk-i-389--005-006_anonim--missa-no-5-benedictus.krn
!!!cenid: 17xx:2489
!!!COM: Anonim
!!!COM-rismID: pe30004985
!!!CDT:
!!!CNT:
!!!OPR: [Missa] No. 5.
!!!OTL: Benedictus
!!!OMV: 006
!!!PDT:
!!!AGN: Sacred; Mass
!!!YEC: Copyright 2022 Narodowy Instytut Fryderyka Chopina (https://polishscores.org)
!!!YEM: License CC-BY-4.0 (https://creativecommons.org/licenses/by/4.0)
!!!SMS-siglum: PL-Kk
!!!SMS-shelfmark: Kk.I.389
!!!SMS-variant:
!!!SMS-altvar:
!!!SMS-shelfwork: 005-006 M
!!!NIFC-rismSourceID: 1001146182
!!!NIFC-rismChildID: 1001146646
!!!NIFC-islandoraID: pl-kk:6976
!!!URL-pdf-islandora: https://repozytorium.nifc.pl/islandora/object/pl-kk%3A6976/datastream/PDF/view
!!!URL-scan: https://polish.musicsources.pl/pl/lokalizacje/galeria/rekopisy/5999/1 @EN{Scan on Polish Music Sources Website} @PL{Skany w portalu Dziedzictwo Muzyki Polskiej w otwartym dostępie}
!!!IIIF:
!!!ONB-nifc: UWAGA: S – skan 9-10, A – 28-29 , T – 47-48 , B – 66-67 . Części Mszy: Rorate, Kyrie, Gloria, Graduale, Sanctus, Benedictus, Agnus.
!!!AIN: 1 alto 1 bass 1 soprn 1 tenor
!!!key: C
**kern	**text	**kern	**text	**kern	**text	**kern	**text
*part4	*part4	*part3	*part3	*part2	*part2	*part1	*part1
*staff4	*staff4	*staff3	*staff3	*staff2	*staff2	*staff1	*staff1
*I"Basso.	*	*I"Tenore.	*	*I"Alto.	*	*I"Soprano.	*
*I'[B]	*	*I'[T]	*	*I'[A]	*	*I'[S]	*
*ICvox	*	*ICvox	*	*ICvox	*	*ICvox	*
*Ibass	*	*Itenor	*	*Ialto	*	*Isoprn	*
*clefF4	*	*clefC4	*	*clefC3	*	*clefC1	*
*k[]	*	*k[]	*	*k[]	*	*k[]	*
*C:	*	*C:	*	*C:	*	*C:	*
*M2/2	*	*M2/2	*	*M2/2	*	*M2/2	*
*met(C.|)	*	*met(C.|)	*	*met(C.|)	*	*met(C.|)	*
=1	=1	=1	=1	=1	=1	=1	=1
!!LO:TX:t=P:problem:all\right	!	!	!	!	!	!	!
4C/	Be-	4c\	Be-	4g\	Be-	4ee\	Be-
4D/	-ne-	4B\	-ne-	4f\	-ne-	4dd\	-ne-
4E\	-di-	4G\	-di-	4e\	-di-	4cc\	-di-
8F\	-ctus	8A\	-ctus	8f\	-ctus	8dd\	-ctus
8F#X\	qui	8A\	qui	8e\	qui	8cc\	qui
=2	=2	=2	=2	=2	=2	=2	=2
*2\right	*	*	*	*2\right	*	*2\right	*
2G\	ve-	2G/	ve-	2d\	ve-	2b\	ve-
4G\	-nit	4G/	-nit	4d\	-nit	4b\	-nit
4G\	qui	4G/	qui	8d\L	qui	8b\L	qui
.	.	.	.	8e\J	.	8cc\J	.
=3	=3	=3	=3	=3	=3	=3	=3
2G\	ve-	1B	ve-	8f\L	ve-	8dd\L	ve-
.	.	.	.	8e\	.	8cc\	.
.	.	.	.	8d\	.	8b\	.
.	.	.	.	8e\J	.	8cc\J	.
2GG/	.	.	.	8f\L	.	8dd\L	.
.	.	.	.	8a\	.	8ff\	.
.	.	.	.	8g\	.	8ee\	.
.	.	.	.	8f\J	.	8dd\J	.
=4	=4	=4	=4	=4	=4	=4	=4
2C/	-nit	2G/	-nit,	2e\	-nit,	2cc\	-nit,
4c\	in	4G/	in	4e\	in	4cc\	in
4C/	.	4B\	.	4f\	.	4dd\	.
=5	=5	=5	=5	=5	=5	=5	=5
4C/	no-	4c\	no-	8g\L	no-	8ee\L	no-
.	.	.	.	8e\J	.	8cc\J	.
!	!	!	!	!	!	!LO:LB:g=original	!
8C/	-mi-	8c\	-mi-	8a\	-mi-	8ff\	-mi-
8C/	-ne	8c\	-ne	8g\	-ne	8ee\	-ne
4F\	Do-	4A/	Do-	8g\L	Do-	8ee\L	Do-
.	.	.	.	8f\J	.	8dd\J	.
4F#X\	-mi-	4G/	-mi-	8f\L	-mi-	8dd\L	-mi-
.	.	.	.	8e\J	.	8cc\J	.
!	!	!	!	!LO:LB:g=original	!	!	!
=6	=6	=6	=6	=6	=6	=6	=6
2G\	-ni	2G/	-ni	2d\	-ni,	2b\	-ni,
!	!	!LO:LB:g=original	!	!	!	!	!
4r	.	4r	.	4r	.	4r	.
4G\	qui	4d\	qui	4d\	qui	4b\	qui
=7	=7	=7	=7	=7	=7	=7	=7
4.G\	ve-	4.d\	ve-	4.d\	ve-	4.b\	ve-
8A\	.	8c\	.	8e\	.	8cc\	.
!LO:LB:g=original	!	!	!	!	!	!	!
4.B\	-nit,	4B\	-nit	4f\	-nit	4dd\	-nit
.	.	4B\	qui	4f\	qui	4dd\	qui
8G\	qui	.	.	.	.	.	.
=8	=8	=8	=8	=8	=8	=8	=8
4.c\	ve-	2G/	ve-	4.e\	ve-	4.cc\	ve-
8G\	.	.	.	8f\	.	8dd\	.
4C/	-nit	4c\	-nit	4g\	-nit	4ee\	-nit
4C/	in	4c\	in	4g\	in	4ee\	in
=9	=9	=9	=9	=9	=9	=9	=9
*	*	*2\right	*	*	*	*	*
2C/	No-	2c\	no-	2g\	No-	2ee\	no-
4D\	-mi-	4B\	-mi-	4f\	-mi-	4dd\	-mi-
4E\	-ne	4G/	-ne	4e\	-ne	4cc\	-ne
=10	=10	=10	=10	=10	=10	=10	=10
.	.	.	.	.	.	8qgg/	.
4F\	Do-	2A\	Do-	4a\	Do-	4ff\	.
8E\L	.	.	.	8g\L	.	8ee\L	.
8F\J	.	.	.	8f\J	.	8dd\J	.
!	!	!	!	!	!	!LO:LB:g=original	!
4G\	.	4G\	.	4e\	.	4cc\	.
4GG/	-mi-	4G\	-mi-	4d\	-mi-	4b\	-mi-
=11	=11	=11	=11	=11	=11	=11	=11
2C/	-ni	2G/	-ni	2e\	-ni	2cc\	-ni,
4r	.	4r	.	4r	.	4r	.
!LO:SIC:v:s=4C	!	!LO:SIC:v:s=4c	!	!	!	!	!
4G\	qui	4d\	qui	4e\	qui	4cc\	qui
=12	=12	=12	=12	=12	=12	=12	=12
4.G\	ve-	4.d\	ve-	4.d\	ve-	4.b\	ve-
8A\	.	8c\	.	8e\	.	8cc\	.
!	!	!	!	!LO:LB:g=original	!	!	!
4B\	-nit	4B\	-nit	4f\	-nit	4dd\	-nit
4G\	qui	4B\	in	4f\	qui	4dd\	qui
=13	=13	=13	=13	=13	=13	=13	=13
4.c\	ve-	2G\	no-	4.e\	ve-	4.cc\	ve-
8G\	.	.	.	8f\	.	8dd\	.
4C/	-nit	4c\	-mi-	4g\	-nit	4ee\	-nit
4C/	in	4c\	-ne	4g\	in	4ee\	in
!LO:LB:g=original	!	!LO:LB:g=original	!	!	!	!	!
=14	=14	=14	=14	=14	=14	=14	=14
2C/	no-	2c\	no-	2g\	No-	2ee\	No-
4D\	-mi-	4B\	-mi-	4f\	-mi-	4dd\	-mi-
4E\	-ne	4G\	-ne	4e\	-ne	4cc\	-ne
=15	=15	=15	=15	=15	=15	=15	=15
.	.	.	.	8qb/	.	8qgg/	.
4F\	Do-	2A\	Do-	4a\	.	4ff\	.
8E\L	.	.	.	8g\L	.	8ee\L	.
8F\J	.	.	.	8f\J	.	8dd\J	.
4G\	.	4G/	.	4e\	.	4cc\	.
4GG/	-mi-	4G/	-mi-	4d\	-mi-	4b\	-mi-
=16	=16	=16	=16	=16	=16	=16	=16
2C/	-ni	2G/	-ni.	2e\	-ni.	2cc\	-ni.
!LO:TX:b:i:t=Osana Da Capo.	!	!LO:TX:b:i:t=Osanna Da Capo.	!	!LO:TX:b:i:t=Osanna\nDa Capo.	!	!LO:TX:b:i:t=Osanna\nDa Capo.	!
2r	.	2r	.	2r	.	2r	.
==	==	==	==	==	==	==	==
*-	*-	*-	*-	*-	*-	*-	*-
!!!system-decoration: [(s1,s2,s3,s4)]
!!!ENC: Anastazja Marusiak
!!!END: 2023-11-08
!!!EED: Jan Barakat
!!!EEV: 2023-12-01
!!!YEM: Copyright © 2023 by [Copyright Holder]
